Origami/24x24/apps/jango.svg

<svg width="24" height="24" version="1" xmlns="http://www.w3.org/2000/svg">
 <rect transform="matrix(0,-1,-1,0,0,0)" x="-22" y="-22" width="20" height="20" rx="1" ry="1" style="fill:#19416f"/>
 <path d="m12.5 4.5a1.5 1.5 0 0 0 -1.5 1.5 1.5 1.5 0 0 0 1.5 1.5 1.5 1.5 0 0 0 1.5 -1.5 1.5 1.5 0 0 0 -1.5 -1.5zm-1.5 4c-0.554 0-1 0.446-1 1s0.446 1 1 1h1v6.111328c0 0.485994-0.0018 0.84326-0.02734 1.111328a1.5 1.5 0 0 0 -1.47266 -1.222656 1.5 1.5 0 0 0 -1.5 1.5 1.5 1.5 0 0 0 1.5 1.5 1.5 1.5 0 0 0 0.105469 -0.0039c2.410375-7.77e-4 3.394531-0.043596 3.394531-2.884772v-8.111328h-2-1z" style="opacity:.2"/>
 <path d="m3 2c-0.554 0-1 0.446-1 1v0.5c0-0.554 0.446-1 1-1h18c0.554 0 1 0.446 1 1v-0.5c0-0.554-0.446-1-1-1h-18z" style="fill:#ffffff;opacity:.1"/>
 <path d="m3 22.5c-0.554 0-1-0.446-1-1v-0.5c0 0.554 0.446 1 1 1h18c0.554 0 1-0.446 1-1v0.5c0 0.554-0.446 1-1 1h-18z" style="opacity:.2"/>
 <path d="m12.5 4a1.5 1.5 0 0 0 -1.5 1.5 1.5 1.5 0 0 0 1.5 1.5 1.5 1.5 0 0 0 1.5 -1.5 1.5 1.5 0 0 0 -1.5 -1.5zm-1.5 4c-0.554 0-1 0.446-1 1s0.446 1 1 1h1v6.111328c0 0.485994-0.0018 0.84326-0.02734 1.111328a1.5 1.5 0 0 0 -1.47266 -1.222656 1.5 1.5 0 0 0 -1.5 1.5 1.5 1.5 0 0 0 1.5 1.5 1.5 1.5 0 0 0 0.105469 -0.0039c2.410375-7.77e-4 3.394531-0.043596 3.394531-2.884772v-8.111328h-2-1z" style="fill:#ffffff"/>
</svg>

<svg xmlns="http://www.w3.org/2000/svg" width="24" height="24" version="1">
 <rect style="fill:#19416f" width="20" height="20" x="-22" y="-22" rx="1" ry="1" transform="matrix(0,-1,-1,0,0,0)"/>
 <path style="opacity:0.2" d="M 12.5,4.5 A 1.5,1.5 0 0 0 11,6 1.5,1.5 0 0 0 12.5,7.5 1.5,1.5 0 0 0 14,6 1.5,1.5 0 0 0 12.5,4.5 Z m -1.5,4 c -0.554,0 -1,0.446 -1,1 0,0.554 0.446,1 1,1 l 1,0 0,6.111328 c 0,0.485994 -0.0018,0.84326 -0.02734,1.111328 A 1.5,1.5 0 0 0 10.5,16.5 1.5,1.5 0 0 0 9,18 a 1.5,1.5 0 0 0 1.5,1.5 1.5,1.5 0 0 0 0.105469,-0.0039 C 13.015844,19.495323 14,19.452504 14,16.611328 L 14,8.5 l -2,0 -1,0 z"/>
 <path style="opacity:0.1;fill:#ffffff" d="M 3,2 C 2.446,2 2,2.446 2,3 l 0,0.5 c 0,-0.554 0.446,-1 1,-1 l 18,0 c 0.554,0 1,0.446 1,1 L 22,3 C 22,2.446 21.554,2 21,2 L 3,2 Z"/>
 <path style="opacity:0.2" d="m 3,22.5 c -0.554,0 -1,-0.446 -1,-1 L 2,21 c 0,0.554 0.446,1 1,1 l 18,0 c 0.554,0 1,-0.446 1,-1 l 0,0.5 c 0,0.554 -0.446,1 -1,1 l -18,0 z"/>
 <path style="fill:#ffffff" d="M 12.5,4 A 1.5,1.5 0 0 0 11,5.5 1.5,1.5 0 0 0 12.5,7 1.5,1.5 0 0 0 14,5.5 1.5,1.5 0 0 0 12.5,4 Z M 11,8 c -0.554,0 -1,0.446 -1,1 0,0.554 0.446,1 1,1 l 1,0 0,6.111328 c 0,0.485994 -0.0018,0.84326 -0.02734,1.111328 A 1.5,1.5 0 0 0 10.5,16 1.5,1.5 0 0 0 9,17.5 1.5,1.5 0 0 0 10.5,19 1.5,1.5 0 0 0 10.605469,18.9961 C 13.015844,18.995323 14,18.952504 14,16.111328 L 14,8 12,8 11,8 Z"/>
</svg>
